X: 5
T: "Turkl\aaten"
T: Polska efter lars \AAhs, \"Alfdalen
O: Dalarna
S: Lena Jonsson, workshop in Arlington, Massachusetts, Oct 2008
R: polska
Z: 2008 John Chambers <jc:trillian.mit.edu>
M: 3/4
L: 1/8
K: Ador
z | aa Tg2 (eg) | aa Tg2 (ef) | d2 e3 :|
|: (B \
| c)>d e<f g>a | Tfe/d/ e2 (c2 | B)>(d c<B) AG |1 ((3GBG) A3 :|2 A2 A4 |]
[| aa g2 (ef) | d2 e2 (c2 | B)>(d c<B) AG | A2 A4 |]
